X:16326
T:Tarbolton, The
T:Cooleen Bridge, The
T:Hatton Burn
S:Johnny Cronin, Paddy Cronin, James Kelly \& Johnny McGreevy
N:transcribed by Alan Ng
H:Made popular by Michael Coleman's recording
D:on {\it My Love Is In America}, Green Linnet 1110
Z: id:ng-reels-6 transcribed by Alan Ng agng@students.wisc.edu 1995
E:13
M:C|
R:reel
K:EDor
GB|:Eeed eBBA|GBAF GFEF|Dddc dAAG|FDAG FDDF|\
Eeed efge|fedf edBA|GABG FGAF|BGAF GE E2:|*
|:gfef gebe|gebe gfec|d2 fd Adfd|GBAG FDDF|\
GABG FGAF|E2 ef gfed|B2 =cB AGFG|BGAF GE E2:|**
\bigskip
